X:1
T:Title
%%score { ( 1 4 ) | ( 2 3 ) }
L:1/8
M:4/4
K:Ab
V:1 treble nm="Grand Piano"
V:4 treble 
V:2 bass 
V:3 bass 
V:1
 z4 z2[Q:1/4=100] [Ec]>[Fd] | c2 B2 E2 B>c | [DB]2 [CA]2 [CE]2 [CEA]>[DEB] | A2 G2 GBBd | %4
 f4 e2 [Ec]>[Fd] | c2 B2 E2 B>c | [DB]2 [CA]2 [CE]2 [A,EA][A,EG] | [A,DF][EG][EA][FB] c2 dc | %8
[M:3/4] B4 [CA]2 |[M:1/4] B>A |[M:4/4] G2 B2 [Ge]2 [F=d]>[Ge] | f2 e2 c2 e>c | [GB]2 G2 E2 [EF]2 | %13
 [EG]4 [=DF]2 [DB]>[FA] | [EG]2 [GB]2 [Ge]2 [A=d]>[Be] | f2 e2 c2 [ce]>c | B2 c2 B2 G2 | %17
[M:3/4] [=DF]4 E2 |[M:1/4] [Ec]>[Fd] |[M:4/4] c2 B2 E2 B>c | [DB]2 [CA]2 [CE]2 [CEA]>[DEB] | %21
 A2 G2 GBBd | f4 e2 [Ec]>[Fd] | c2 B2 E2 B>c | [DB]2 [CA]2 [CE]2 [A,EA][A,EG] | %25
 [A,DF][EG][EA][FB] c2 dc |[M:7/4] B4 [CA]2 z2 z2 z4 |] %27
V:2
 z4 z2 [A,,A,]>[A,,A,] | [E,G,E]2 [E,G,D]2 [E,G,D]2 [E,G,D]>[E,G,E] | %2
 [A,,A,]2 [A,,A,]2 [A,,A,]2 A,,>A,, | z4 .B,2 .[G,E]2 | [A,DA]4 [A,CA]2[K:bass] [A,,A,]>[A,,A,] | %5
 [E,G,E]2 [E,G,D]2 [E,G,D]2 [E,G,D]>[E,G,E] | [A,,A,]2 [A,,A,]2 [A,,A,]2 C,C, | %7
 z B,C,D, [E,A,E]2 [E,E]-[E,A,E] |[M:3/4] [E,G,D]4 A,,2 |[M:1/4] [E,G,E]>[E,CE] | %10
[M:4/4] [E,B,E]2 [E,G,E]2 [E,B,]2 [E,B,]>[E,B,] | [A,CA]2 [A,CA]2 [A,EA]2 [A,CA]>[A,EA] | %12
 [E,E]2 [E,B,E]2 [E,G,]2 [C,=A,]2 | [B,,B,]4 [B,,B,]2 [B,,F,]>[=D,B,] | %14
 [E,B,]2 [E,B,]2 [E,B,]2 [F,B,]>[G,B,] | [A,CA]2 [A,CA]2 [A,EA]2 [A,E]>[A,EA] | %16
 [B,EG]2 [B,EA]2 [B,EG]2[K:bass] [B,E]2 |[M:3/4] [B,,A,]4 [E,G,]2 |[M:1/4] [A,,A,]>[A,,A,] | %19
[M:4/4] [E,G,E]2 [E,G,D]2 [E,G,D]2 [E,G,D]>[E,G,E] | [A,,A,]2 [A,,A,]2 [A,,A,]2 A,,>A,, | %21
 z4 .B,2 .[G,E]2 | [A,DA]4 [A,CA]2[K:bass] [A,,A,]>[A,,A,] | %23
 [E,G,E]2 [E,G,D]2 [E,G,D]2 [E,G,D]>[E,G,E] | [A,,A,]2 [A,,A,]2 [A,,A,]2 C,C, | %25
 z B,C,D, [E,A,E]2 [E,E]-[E,A,E] |[M:7/4] [E,G,D]4 A,,2 z2 z2 z4 |] %27
V:3
 x8 | x8 | x8 | [E,CE]2 [E,B,E]2 [E,E]-[E,G,E]E,-[E,B,G] | x6[K:bass] x2 | x8 | x8 | %7
 D,2 z2 z2 .B,2 |[M:3/4] x6 |[M:1/4] x2 |[M:4/4] x8 | x8 | x8 | x8 | x8 | x8 | x6[K:bass] x2 | %17
[M:3/4] x6 |[M:1/4] x2 |[M:4/4] x8 | x8 | [E,CE]2 [E,B,E]2 [E,E]-[E,G,E]E,-[E,B,G] | %22
 x6[K:bass] x2 | x8 | x8 | D,2 z2 z2 .B,2 |[M:7/4] x14 |] %27
V:4
 x8 | x8 | x8 | x8 | x8 | x8 | x8 | z2 A,2 z4 |[M:3/4] x6 |[M:1/4] x2 |[M:4/4] x8 | x8 | x8 | x8 | %14
 x8 | x8 | x8 |[M:3/4] x6 |[M:1/4] x2 |[M:4/4] x8 | x8 | x8 | x8 | x8 | x8 | z2 A,2 z4 | %26
[M:7/4] x14 |] %27

